gem/static/img/icons/facebook.svg

<?xml version="1.0" encoding="UTF-8" standalone="no"?>
<svg width="22px" height="22px" viewBox="0 0 22 22" version="1.1" xmlns="http://www.w3.org/2000/svg" xmlns:xlink="http://www.w3.org/1999/xlink">
    <!-- Generator: Sketch 43.2 (39069) - http://www.bohemiancoding.com/sketch -->
    <title>icons/facebook</title>
    <desc>Created with Sketch.</desc>
    <defs></defs>
    <g id="Basics" stroke="none" stroke-width="1" fill="none" fill-rule="evenodd" stroke-linecap="round" stroke-linejoin="round">
        <g id="basics/icons" transform="translate(-85.000000, -520.000000)" stroke="#0161F0" stroke-width="1.8">
            <g id="icon" transform="translate(29.000000, 487.000000)">
                <g id="icons/facebook" transform="translate(55.000000, 32.000000)">
                    <path d="M12.2171916,21.9551931 L12.2981916,15.2991931 L9.78819157,15.2991931 L9.80819157,12.2481931 L12.2971916,12.2481931 C12.2971916,12.2481931 12.2981916,10.9141931 12.2981916,9.91819308 C12.2981916,8.68919308 12.6011916,7.63719308 13.2121916,6.96519308 C13.7521916,6.35819308 14.8311916,5.75719308 16.0581916,5.75719308 C17.0391916,5.75719308 17.7931916,5.75719308 18.5271916,5.78819308 C18.5341916,6.36019308 18.5481916,7.57519308 18.5471916,8.64319308 L17.6011916,8.62419308 C16.8831916,8.62419308 16.1441916,8.64219308 15.7461916,8.98819308 C15.2371916,9.43319308 15.3281916,10.5821931 15.3281916,10.5821931 C15.3221916,11.0561931 15.3541916,12.2281931 15.3541916,12.2281931 L18.4101916,12.2681931 L17.8421916,15.3061931 L15.3731916,15.3061931 L15.5171916,21.9851931 C15.5171916,21.9851931 18.0431916,21.9641931 19.2481916,21.9981931 C20.4421916,22.0321931 21.8761916,21.4521931 21.9441916,19.3011931 C21.9971916,17.6271931 22.0201916,15.5111931 21.9781916,12.5581931 C21.9161916,8.35419308 21.9751916,5.67819308 21.9551916,5.03819308 C21.9021916,3.27219308 20.9281916,2.14719308 19.3321916,2.14719308 C17.3031916,2.14719308 7.71119157,1.95419308 5.73319157,2.01019308 C3.75419157,2.06319308 2.26119157,3.05319308 2.28319157,4.72719308 C2.35119157,9.95019308 1.66519157,13.8071931 2.21519157,19.5061931 C2.31519157,20.5461931 3.13719157,21.9301931 5.35519157,21.9641931 C8.84619157,22.0171931 12.2171916,21.9551931 12.2171916,21.9551931 Z" id="face"></path>
                </g>
            </g>
        </g>
    </g>
</svg>

<svg xmlns="http://www.w3.org/2000/svg" width="24" height="24" viewBox="0 0 24 24">
    <path fill="none" fill-rule="evenodd" stroke="#0161F0" stroke-linecap="round" stroke-linejoin="round" stroke-width="1.8" d="M12.217 21.955l.081-6.656h-2.51l.02-3.05h2.49v-2.33c0-1.23.303-2.282.914-2.954.54-.607 1.62-1.208 2.846-1.208.981 0 1.735 0 2.47.031.006.572.02 1.787.02 2.855l-.947-.019c-.718 0-1.457.018-1.855.364-.509.445-.418 1.594-.418 1.594-.006.474.026 1.646.026 1.646l3.056.04-.568 3.038h-2.469l.144 6.68s2.526-.022 3.731.012c1.194.034 2.628-.546 2.696-2.697.053-1.674.076-3.79.034-6.743-.062-4.204-.003-6.88-.023-7.52-.053-1.766-1.027-2.89-2.623-2.89-2.029 0-11.62-.194-13.599-.138-1.979.053-3.472 1.043-3.45 2.717.068 5.223-.618 9.08-.068 14.78.1 1.04.922 2.423 3.14 2.457 3.491.053 6.862-.009 6.862-.009z"/>
</svg>
